X: 1
T: Joe McDiarmid's Jig
C: Rob Loch
O: arr Muriel Johnstone
M: 6/8
L: 1/8
K: D
d \
| "D"A2d dcd | "G"B2d "D"A2d | "D"f2d "(E7)"dcd | "A7"e3 e2f \
| "D"A2d dcd | "G"B2d "D"A2d | "D"f2e "G"edB | "A7"Add "D"d2 :|
|: e \
| "D"fdd A2d | "G"Bdd "D"A3 | "D"fdd "E7"ABd | "A7"e3 e3 \
| "D"fdd A2d | "G"Bdd "D"A2d | "D"f2e "G"edB | "A7"Add "D"d2 :|
